X:616
T:
S:Karilj (»Bonjour»), från Gotlands fornsal.
R:kadrilj
O:Gotland
M:2/4
L:1/16
K:Bb
dc|B2B2 b2b2|g4 edcB|A2A2 f2f2|d2B2 de=ef|
B2B2 bagf|=e2e2 fefd|c2A2 cBAG|F6:|
|:ff|a2f2 b2f2|=e2f2 c2d2|_e2gf f2A2|B2c2 d2c2|
f2f2 bagf|g2B2 E2g2|fgfe dcBA|B6:|
M:3/8
|:f2|d2B2b2|g4 e2|c2A2f2|d2B2 F2|
B2d2 F2|G2e2c2|BAGFGA|B4:|

